packages/ui-icons/src/Basic/32/Shop_32.svg

<svg xmlns="http://www.w3.org/2000/svg" viewBox="0 0 40 40"><path d="m10.44 12-.24-1a3.8 3.8 0 0 0-3.73-3H4v2h2.47a1.82 1.82 0 0 1 1.78 1.43L12 27a3.89 3.89 0 0 0 3.69 3H32v-2H15.69a1.91 1.91 0 0 1-1.78-1.51v-.09l15.39-2.1a6.63 6.63 0 0 0 5.61-5.3l1.2-6-.79-1Zm22.5 6.57a4.64 4.64 0 0 1-3.94 3.8L13.42 24.5 10.92 14h22.94ZM30 36a2 2 0 1 1 2-2 2 2 0 0 1-2 2Zm-14 0a2 2 0 1 1 2-2 2 2 0 0 1-2 2Z"/></svg>

<svg id="Ready" xmlns="http://www.w3.org/2000/svg" viewBox="0 0 40 40"><title>Megaicons_work_32_1.8_cp</title><path d="M10.44,12l-.24-1A3.8,3.8,0,0,0,6.47,8H4v2H6.47a1.82,1.82,0,0,1,1.78,1.43L12,27A3.89,3.89,0,0,0,15.69,30H32V28H15.69a1.91,1.91,0,0,1-1.78-1.51l0-.09,15.39-2.1A6.63,6.63,0,0,0,34.91,19l1.2-6L35.32,12Zm22.5,6.57A4.64,4.64,0,0,1,29,22.37L13.42,24.5,10.92,14H33.86ZM30,36a2,2,0,1,1,2-2A2,2,0,0,1,30,36ZM16,36a2,2,0,1,1,2-2A2,2,0,0,1,16,36Z"/></svg>
